X:1
T:Title
%%score { 1 | 2 } { 3 | 4 }
L:1/8
Q:1/4=135
M:3/4
K:Ab
V:1 treble nm="Grand Piano, Soprano"
V:2 treble 
V:3 bass nm="Choir Pad, Metropolitan, CM"
V:4 bass 
V:1
 E2 c4 | c2 d4 | c2 c4 | B2 A4 | A2 A4 | A2 c4 | B2 B4 | E2 c4 | c2 d4 | d2 e4 | e2 f4 | B2 c4 | %12
w: By~John~Turner~Layton,~1898 *||||||||||||
 c2 c4 | B2 A4- | A4 z2 |] %15
w: |||
V:2
 z2 E4 | E2 E4 | E2 E4 | D2 C4 | =D2 D4 | =D2 D4 | =D2 E4 | z2 E4 | F2 E4 | E2 E4 | _G2 E4 | %11
 F2 E4 | E2 D4 | D2 C4- | C4 z2 |] %15
V:3
 E,2 A,4 | A,2 G,4 | A,2 A,4 | G,2 A,4 | F,2 F,4 | F,2 F,4 | A,2 G,4 | G,2 A,4 | A,2 A,4 | %9
 A,2 A,4 | A,2 A,4 | A,2 A,4 | A,2 G,4 | G,2 A,4- | A,4 z2 |] %15
V:4
 z2 A,,4 | A,,2 B,,4 | A,,2 E,4 | =E,2 F,4 | B,,2 B,,4 | B,,2 B,,4 | B,,2 E,4 | E,2 A,,4 | %8
 A,,2 B,,4 | B,,2 C,4 | C,2 D,4 | =D,2 E,4 | E,2 [E,,E,]4 | [E,,E,]2 A,,4- | A,,4 z2 |] %15

